!!!COM: Music21
!!!OTL: Alalá
!!!OMV: pezas_alalas_alala-10_alala-partitura.musicxml
**kern
*I"Bagpipes
*I'Bag
*clefG^2
*k[]
*M2/4
=1
!LO:TX:a:t=Moderato
*MM112
!LO:TX:a:t=[quarter]=112
4.r
8gg
=
12ggL
12ccc
12ggJ
8cccL
8eeeJ
=
8ggg
[4.fff
=
4.fff]
8eee
=
12fffL
12eee
12dddJ
8cccL
[8eeeJ
=
2eee]
=
8fff
[4.ddd
!!linebreak:original
=
4.ddd]
8gg
=
12ggL
12ccc
12ggJ
8cccL
8eeeJ
=
8ggg
[4.fff
=
4.fff]
8eee
=
12fffL
12eee
12dddJ
8cccL
[8eeeJ
=
2eee]
!!linebreak:original
=
8fff
[4.ddd
=
2ddd]
=||
*M3/4
8bbL
8cccJ
8dddL
8eeeJ
8cccL
8dddJ
=
8cccL
16bbL
16aaJJ
4gg;
8ggL
8aaJ
=||
*M2/4
8bbL
8cccJ
8aaL
8bbJ
!!linebreak:original
=
4aa
[4gg
=
2gg]
=||
*M3/4
8bbL
8cccJ
8dddL
8eeeJ
8cccL
8dddJ
=
8cccL
16bbL
16aaJJ
4gg;
8ggL
8aaJ
=||
*M2/4
8bbL
8cccJ
8aaL
8bbJ
=
4aa
[4gg
=
2gg]
==
*-
